humanity-icon-theme/Humanity/mimes/64/text-html.svg

<?xml version="1.0" encoding="UTF-8" standalone="no"?>
<!-- Created with Inkscape (http://www.inkscape.org/) -->

<svg
   xmlns:dc="http://purl.org/dc/elements/1.1/"
   xmlns:cc="http://creativecommons.org/ns#"
   xmlns:rdf="http://www.w3.org/1999/02/22-rdf-syntax-ns#"
   xmlns:svg="http://www.w3.org/2000/svg"
   xmlns="http://www.w3.org/2000/svg"
   xmlns:xlink="http://www.w3.org/1999/xlink"
   xmlns:sodipodi="http://sodipodi.sourceforge.net/DTD/sodipodi-0.dtd"
   xmlns:inkscape="http://www.inkscape.org/namespaces/inkscape"
   width="64px"
   height="64px"
   id="svg4305"
   version="1.1"
   inkscape:version="0.47 r22583"
   sodipodi:docname="text-html.svg">
  <defs
     id="defs4307">
    <linearGradient
       inkscape:collect="always"
       xlink:href="#linearGradient8589"
       id="linearGradient4123"
       gradientUnits="userSpaceOnUse"
       gradientTransform="matrix(1.3538978,0,0,1.3812083,-0.611935,-1.690321)"
       x1="32.892288"
       y1="8.0590115"
       x2="36.358372"
       y2="5.4565363" />
    <linearGradient
       id="linearGradient8589">
      <stop
         id="stop8591"
         style="stop-color:#fefefe;stop-opacity:1"
         offset="0" />
      <stop
         id="stop8593"
         style="stop-color:#cbcbcb;stop-opacity:1"
         offset="1" />
    </linearGradient>
    <linearGradient
       inkscape:collect="always"
       xlink:href="#linearGradient3211"
       id="linearGradient4130"
       gradientUnits="userSpaceOnUse"
       gradientTransform="matrix(1.3636354,0,0,1.3255808,-0.7272518,-1.813939)"
       x1="24"
       y1="1.9999999"
       x2="24"
       y2="46.01725" />
    <linearGradient
       id="linearGradient3211">
      <stop
         id="stop3213"
         style="stop-color:#ffffff;stop-opacity:1"
         offset="0" />
      <stop
         id="stop3215"
         style="stop-color:#ffffff;stop-opacity:0"
         offset="1" />
    </linearGradient>
    <radialGradient
       inkscape:collect="always"
       xlink:href="#XMLID_8_"
       id="radialGradient4133"
       gradientUnits="userSpaceOnUse"
       gradientTransform="matrix(0.4857141,0,0,-0.5239323,0.914304,63.5413)"
       cx="102"
       cy="112.3047"
       r="139.55859" />
    <radialGradient
       cx="102"
       cy="112.3047"
       r="139.55859"
       id="XMLID_8_"
       gradientUnits="userSpaceOnUse">
      <stop
         id="stop41"
         style="stop-color:#b7b8b9;stop-opacity:1"
         offset="0" />
      <stop
         id="stop47"
         style="stop-color:#ececec;stop-opacity:1"
         offset="0.18851049" />
      <stop
         id="stop49"
         style="stop-color:#fafafa;stop-opacity:0"
         offset="0.25718147" />
      <stop
         id="stop51"
         style="stop-color:#ffffff;stop-opacity:0"
         offset="0.30111277" />
      <stop
         id="stop53"
         style="stop-color:#fafafa;stop-opacity:0"
         offset="0.53130001" />
      <stop
         id="stop55"
         style="stop-color:#ebecec;stop-opacity:0"
         offset="0.84490001" />
      <stop
         id="stop57"
         style="stop-color:#e1e2e3;stop-opacity:0"
         offset="1" />
    </radialGradient>
    <linearGradient
       inkscape:collect="always"
       xlink:href="#linearGradient3600"
       id="linearGradient4136"
       gradientUnits="userSpaceOnUse"
       gradientTransform="matrix(1.3428562,0,0,1.2819748,-0.2285523,-2.7340661)"
       x1="25.132275"
       y1="0.98520643"
       x2="25.132275"
       y2="47.013336" />
    <linearGradient
       id="linearGradient3600">
      <stop
         id="stop3602"
         style="stop-color:#f4f4f4;stop-opacity:1"
         offset="0" />
      <stop
         id="stop3604"
         style="stop-color:#dbdbdb;stop-opacity:1"
         offset="1" />
    </linearGradient>
    <linearGradient
       inkscape:collect="always"
       xlink:href="#linearGradient3104"
       id="linearGradient4138"
       gradientUnits="userSpaceOnUse"
       gradientTransform="matrix(1.0843521,0,0,1.1997374,79.550849,-4.1628007)"
       x1="-51.786404"
       y1="50.786446"
       x2="-51.786404"
       y2="2.9062471" />
    <linearGradient
       id="linearGradient3104">
      <stop
         id="stop3106"
         style="stop-color:#aaaaaa;stop-opacity:1"
         offset="0" />
      <stop
         id="stop3108"
         style="stop-color:#c8c8c8;stop-opacity:1"
         offset="1" />
    </linearGradient>
    <radialGradient
       inkscape:collect="always"
       xlink:href="#linearGradient5060"
       id="radialGradient4141"
       gradientUnits="userSpaceOnUse"
       gradientTransform="matrix(0.03132633,0,0,0.02058823,35.220859,49.451413)"
       cx="605.71429"
       cy="486.64789"
       fx="605.71429"
       fy="486.64789"
       r="117.14286" />
    <linearGradient
       id="linearGradient5060">
      <stop
         id="stop5062"
         style="stop-color:#000000;stop-opacity:1"
         offset="0" />
      <stop
         id="stop5064"
         style="stop-color:#000000;stop-opacity:0"
         offset="1" />
    </linearGradient>
    <radialGradient
       inkscape:collect="always"
       xlink:href="#linearGradient5060"
       id="radialGradient4144"
       gradientUnits="userSpaceOnUse"
       gradientTransform="matrix(-0.03132632,0,0,0.02058823,28.779136,49.451413)"
       cx="605.71429"
       cy="486.64789"
       fx="605.71429"
       fy="486.64789"
       r="117.14286" />
    <linearGradient
       id="linearGradient5048">
      <stop
         id="stop5050"
         style="stop-color:#000000;stop-opacity:0"
         offset="0" />
      <stop
         id="stop5056"
         style="stop-color:#000000;stop-opacity:1"
         offset="0.5" />
      <stop
         id="stop5052"
         style="stop-color:#000000;stop-opacity:0"
         offset="1" />
    </linearGradient>
    <linearGradient
       y2="609.50507"
       x2="302.85715"
       y1="366.64789"
       x1="302.85715"
       gradientTransform="matrix(0.09153846,0,0,0.02058823,-1.084616,49.45137)"
       gradientUnits="userSpaceOnUse"
       id="linearGradient4303"
       xlink:href="#linearGradient5048"
       inkscape:collect="always" />
  </defs>
  <sodipodi:namedview
     id="base"
     pagecolor="#ffffff"
     bordercolor="#666666"
     borderopacity="1.0"
     inkscape:pageopacity="0.0"
     inkscape:pageshadow="2"
     inkscape:zoom="1"
     inkscape:cx="32"
     inkscape:cy="32"
     inkscape:current-layer="layer1"
     showgrid="true"
     inkscape:document-units="px"
     inkscape:grid-bbox="true"
     inkscape:window-width="603"
     inkscape:window-height="484"
     inkscape:window-x="417"
     inkscape:window-y="162"
     inkscape:window-maximized="0" />
  <metadata
     id="metadata4310">
    <rdf:RDF>
      <cc:Work
         rdf:about="">
        <dc:format>image/svg+xml</dc:format>
        <dc:type
           rdf:resource="http://purl.org/dc/dcmitype/StillImage" />
        <dc:title></dc:title>
      </cc:Work>
    </rdf:RDF>
  </metadata>
  <g
     id="layer1"
     inkscape:label="Layer 1"
     inkscape:groupmode="layer">
    <rect
       style="opacity:0.3;fill:url(#linearGradient4303);fill-opacity:1;fill-rule:nonzero;stroke:none;stroke-width:1;marker:none;visibility:visible;display:inline;overflow:visible"
       id="rect2879"
       y="57"
       x="9.8999996"
       height="5"
       width="44.199997" />
    <path
       style="opacity:0.3;fill:url(#radialGradient4144);fill-opacity:1;fill-rule:nonzero;stroke:none;stroke-width:1;marker:none;visibility:visible;display:inline;overflow:visible"
       id="path2881"
       d="m 9.9,57.000217 c 0,0 0,4.999724 0,4.999724 C 8.2867719,62.009354 6,60.879757 6,59.499757 6,58.119759 7.8002408,57.000218 9.9,57.000217 z" />
    <path
       style="opacity:0.3;fill:url(#radialGradient4141);fill-opacity:1;fill-rule:nonzero;stroke:none;stroke-width:1;marker:none;visibility:visible;display:inline;overflow:visible"
       id="path2883"
       d="m 54.099999,57.000217 c 0,0 0,4.999724 0,4.999724 C 55.713227,62.009354 58,60.879757 58,59.499757 c 0,-1.379998 -1.800241,-2.499539 -3.900001,-2.49954 z" />
    <path
       style="fill:url(#linearGradient4136);fill-opacity:1;stroke:url(#linearGradient4138);stroke-width:0.9999218;stroke-linecap:butt;stroke-linejoin:round;stroke-miterlimit:4;stroke-opacity:1;stroke-dasharray:none;stroke-dashoffset:0;display:inline"
       id="path4160"
       d="m 8.4999608,0.4999609 c 10.7701042,0 21.5402062,0 32.3103112,0 1.889309,0.6363865 12.039316,7.8865077 14.689766,12.9065091 0,15.364523 0,30.729046 0,46.093569 -15.666693,0 -31.333384,0 -47.0000772,0 0,-19.666693 0,-39.333386 0,-59.0000781 z" />
    <path
       style="fill:url(#radialGradient4133);fill-opacity:1"
       id="path4191"
       d="m 9.6571549,58.825911 c -0.2676272,0 -0.4857138,-0.235245 -0.4857138,-0.523935 l 0,-56.5846615 c 0,-0.2892094 0.2180866,-0.5239311 0.4857138,-0.5239311 C 19.705871,1.338203 30.84163,0.97675331 40.878137,1.2294421 L 54.68624,13.116478 54.828554,58.301976 c 0,0.28869 -0.2176,0.523935 -0.485714,0.523935 l -44.6856851,0 z" />
    <path
       style="opacity:0.6;fill:none;stroke:url(#linearGradient4130);stroke-width:0.9999218;stroke-linecap:butt;stroke-linejoin:round;stroke-miterlimit:4;stroke-opacity:1;stroke-dasharray:none;stroke-dashoffset:0;display:inline"
       id="path2435"
       d="m 54.500038,13.404529 c 0,14.843693 0,30.251815 0,45.095508 -15.000024,0 -30.00005,0 -45.0000771,0 0,-19.000026 0,-38.000051 0,-57.0000762 10.3118021,0 20.8695341,0 31.1813361,0" />
    <g
       id="g3423"
       transform="translate(-31.058336,6.8706093e-8)">
      <path
         style="opacity:0.05;fill:#000000;fill-opacity:1;fill-rule:evenodd;stroke:none;display:inline"
         id="path3232"
         d="m 66.793324,0.98784908 c 6.564831,0 3.300793,13.00415592 3.300793,13.00415592 0,0 15.877601,-3.622726 15.877601,2.802845 0,0 0.03625,-3.052742 0.03625,-3.052742 C 82.616299,10.350441 75.428771,3.7146517 70.80341,1.1886238 c 0,0 -4.010086,-0.20077472 -4.010086,-0.20077472 l 0,0 z" />
      <path
         style="opacity:0.1;fill:#000000;fill-opacity:1;fill-rule:evenodd;stroke:none;display:inline"
         id="path3230"
         d="m 68.039349,0.98784908 c 6.138312,0 3.08634,12.15927292 3.08634,12.15927292 0,0 14.846029,-2.8422 14.846029,3.094153 C 86.757926,11.17637 72.877187,-0.58832169 68.039349,0.98784908 l 0,0 z" />
      <path
         style="opacity:0.15;fill:#000000;fill-opacity:1;fill-rule:evenodd;stroke:none;display:inline"
         id="path3382"
         d="m 72.054106,12.386727 c 0,0 13.917613,-2.4218218 13.917613,3.787561 0,-3.506698 -7.835918,-13.315375 -16.810946,-15.18643892 4.363138,1.67014312 3.770311,7.26544222 2.893333,11.39887792 z" />
    </g>
    <path
       style="fill:url(#linearGradient4123);fill-opacity:1;fill-rule:evenodd;stroke:none;display:inline"
       id="path4474"
       d="m 38,1.0000001 c 4.324139,0 3.169676,10.1689109 3.169676,10.1689109 0,0 13.807868,-1.3020627 13.807868,4.831089 0,-1.494356 0.116586,-2.564493 -0.181538,-3.030804 C 52.654202,9.6190841 43.403114,2.1014808 40.062421,1.1161769 39.812428,1.0424443 39.258109,1.0000001 38,1.0000001 z" />
    <path
       style="opacity:0.6;fill:#ffffff;fill-opacity:1;stroke:none"
       d="M 47.655405,33.303999 42.364866,25.576 44.128375,23 51,33.303999 43.945946,44 42,41.648 47.655405,33.303999 z"
       id="path2882-04-0" />
    <path
       style="opacity:0.6;fill:#ffffff;fill-opacity:1;stroke:none"
       d="M 16.344595,33.303999 21.635134,25.576 19.871625,23 13,33.303999 20.054055,44 22,41.648 16.344595,33.303999 z"
       id="path2882-3" />
    <path
       style="opacity:0.4;fill:#666666;fill-opacity:1;stroke:none"
       d="M 16.344595,32.303998 21.635134,24.576 19.871625,22 13,32.303998 20.054055,43 22,40.647999 16.344595,32.303998 z"
       id="path2882" />
    <rect
       style="opacity:0.6;color:#000000;fill:#ffffff;fill-opacity:1;fill-rule:nonzero;stroke:none;stroke-width:3;marker:none;visibility:visible;display:inline;overflow:visible;enable-background:accumulate"
       id="rect2888-3"
       width="2.2341745"
       height="19.22957"
       x="44.162804"
       y="26.707737"
       transform="matrix(1,0,-0.35184486,0.93605833,0,0)" />
    <rect
       style="opacity:0.4;color:#000000;fill:#000000;fill-opacity:1;fill-rule:evenodd;stroke:none;stroke-width:3;marker:none;visibility:visible;display:inline;overflow:visible;enable-background:accumulate"
       id="rect2888"
       width="2.2341745"
       height="19.22957"
       x="43.786922"
       y="25.639427"
       transform="matrix(1,0,-0.35184486,0.93605833,0,0)" />
    <path
       style="opacity:0.4;fill:#666666;fill-opacity:1;stroke:none"
       d="M 47.655405,32.303998 42.364866,24.576 44.128375,22 51,32.303998 43.945946,43 42,40.647999 47.655405,32.303998 z"
       id="path2882-04" />
  </g>
</svg>

<?xml version="1.0" encoding="UTF-8" standalone="no"?>
<!-- Created with Inkscape (http://www.inkscape.org/) -->
<svg id="svg4305" xmlns:rdf="http://www.w3.org/1999/02/22-rdf-syntax-ns#" xmlns="http://www.w3.org/2000/svg" height="64px" width="64px" version="1.1" xmlns:cc="http://creativecommons.org/ns#" xmlns:xlink="http://www.w3.org/1999/xlink" xmlns:dc="http://purl.org/dc/elements/1.1/">
 <defs id="defs4307">
  <linearGradient id="linearGradient4123" y2="5.4565" gradientUnits="userSpaceOnUse" x2="36.358" gradientTransform="matrix(1.3539 0 0 1.3812 -.61194 -1.6903)" y1="8.059" x1="32.892">
   <stop id="stop8591" style="stop-color:#fefefe" offset="0"/>
   <stop id="stop8593" style="stop-color:#cbcbcb" offset="1"/>
  </linearGradient>
  <linearGradient id="linearGradient4130" y2="46.017" gradientUnits="userSpaceOnUse" x2="24" gradientTransform="matrix(1.3636 0 0 1.3256 -.72725 -1.8139)" y1="2" x1="24">
   <stop id="stop3213" style="stop-color:#fff" offset="0"/>
   <stop id="stop3215" style="stop-color:#fff;stop-opacity:0" offset="1"/>
  </linearGradient>
  <radialGradient id="radialGradient4133" gradientUnits="userSpaceOnUse" cy="112.3" cx="102" gradientTransform="matrix(.48571 0 0 -.52393 .91430 63.541)" r="139.56">
   <stop id="stop41" style="stop-color:#b7b8b9" offset="0"/>
   <stop id="stop47" style="stop-color:#ececec" offset=".18851"/>
   <stop id="stop49" style="stop-color:#fafafa;stop-opacity:0" offset=".25718"/>
   <stop id="stop51" style="stop-color:#fff;stop-opacity:0" offset=".30111"/>
   <stop id="stop53" style="stop-color:#fafafa;stop-opacity:0" offset=".53130"/>
   <stop id="stop55" style="stop-color:#ebecec;stop-opacity:0" offset=".84490"/>
   <stop id="stop57" style="stop-color:#e1e2e3;stop-opacity:0" offset="1"/>
  </radialGradient>
  <linearGradient id="linearGradient4136" y2="47.013" gradientUnits="userSpaceOnUse" x2="25.132" gradientTransform="matrix(1.3429 0 0 1.282 -.22855 -2.7341)" y1=".98521" x1="25.132">
   <stop id="stop3602" style="stop-color:#f4f4f4" offset="0"/>
   <stop id="stop3604" style="stop-color:#dbdbdb" offset="1"/>
  </linearGradient>
  <linearGradient id="linearGradient4138" y2="2.9062" gradientUnits="userSpaceOnUse" x2="-51.786" gradientTransform="matrix(1.0844 0 0 1.1997 79.551 -4.1628)" y1="50.786" x1="-51.786">
   <stop id="stop3106" style="stop-color:#aaa" offset="0"/>
   <stop id="stop3108" style="stop-color:#c8c8c8" offset="1"/>
  </linearGradient>
  <radialGradient id="radialGradient4141" xlink:href="#linearGradient5060" gradientUnits="userSpaceOnUse" cy="486.65" cx="605.71" gradientTransform="matrix(.031326 0 0 .020588 35.221 49.451)" r="117.14"/>
  <linearGradient id="linearGradient5060">
   <stop id="stop5062" offset="0"/>
   <stop id="stop5064" style="stop-opacity:0" offset="1"/>
  </linearGradient>
  <radialGradient id="radialGradient4144" xlink:href="#linearGradient5060" gradientUnits="userSpaceOnUse" cy="486.65" cx="605.71" gradientTransform="matrix(-.031326 0 0 .020588 28.779 49.451)" r="117.14"/>
  <linearGradient id="linearGradient4303" y2="609.51" gradientUnits="userSpaceOnUse" y1="366.65" gradientTransform="matrix(.091538 0 0 .020588 -1.0846 49.451)" x2="302.86" x1="302.86">
   <stop id="stop5050" style="stop-opacity:0" offset="0"/>
   <stop id="stop5056" offset=".5"/>
   <stop id="stop5052" style="stop-opacity:0" offset="1"/>
  </linearGradient>
 </defs>
 <metadata id="metadata4310">
  <rdf:RDF>
   <cc:Work rdf:about="">
    <dc:format>image/svg+xml</dc:format>
    <dc:type rdf:resource="http://purl.org/dc/dcmitype/StillImage"/>
    <dc:title/>
   </cc:Work>
  </rdf:RDF>
 </metadata>
 <g id="layer1">
  <rect id="rect2879" style="opacity:.3;fill:url(#linearGradient4303)" height="5" width="44.2" y="57" x="9.9"/>
  <path id="path2881" style="opacity:.3;fill:url(#radialGradient4144)" d="m9.9 57v4.9997c-1.6132 0.009-3.9-1.12-3.9-2.5s1.8002-2.5 3.9-2.5z"/>
  <path id="path2883" style="opacity:.3;fill:url(#radialGradient4141)" d="m54.1 57v4.9997c1.613 0.009 3.9-1.12 3.9-2.5s-1.8002-2.4995-3.9-2.4995z"/>
  <path id="path4160" style="stroke-linejoin:round;stroke:url(#linearGradient4138);stroke-width:.99992;fill:url(#linearGradient4136)" d="m8.5 0.49996h32.31c1.8893 0.63639 12.039 7.8865 14.69 12.907v46.094h-47v-59z"/>
  <path id="path4191" style="fill:url(#radialGradient4133)" d="m9.6572 58.826c-0.26763 0-0.48571-0.23524-0.48571-0.52394v-56.585c0-0.28921 0.21809-0.52393 0.48571-0.52393 10.049 0.1451 21.185-0.21635 31.221 0.0363l13.808 11.887 0.143 45.186c0 0.28869-0.2176 0.52394-0.48571 0.52394h-44.686z"/>
  <path id="path2435" style="opacity:.6;stroke-linejoin:round;stroke:url(#linearGradient4130);stroke-width:.99992;fill:none" d="m54.5 13.405v45.096h-45v-57h31.181"/>
  <g id="g3423" transform="translate(-31.058 6.8706e-8)">
   <path id="path3232" style="opacity:.05;fill-rule:evenodd" d="m66.793 0.98785c6.5648 0 3.3008 13.004 3.3008 13.004s15.878-3.6227 15.878 2.8028l0.03625-3.0527c-3.392-3.392-10.579-10.027-15.205-12.553l-4.0101-0.20077z"/>
   <path id="path3230" style="opacity:.1;fill-rule:evenodd" d="m68.039 0.98785c6.1383 0 3.0863 12.159 3.0863 12.159s14.846-2.8422 14.846 3.0942c0.787-5.065-13.094-16.829-17.932-15.253z"/>
   <path id="path3382" style="opacity:.15;fill-rule:evenodd" d="m72.054 12.387s13.918-2.4218 13.918 3.7876c0-3.5067-7.8359-13.315-16.811-15.186 4.3631 1.6701 3.7703 7.2654 2.8933 11.399z"/>
  </g>
  <path id="path4474" style="fill:url(#linearGradient4123);fill-rule:evenodd" d="m38 1c4.3241 0 3.1697 10.169 3.1697 10.169s13.808-1.3021 13.808 4.8311c0-1.4944 0.11659-2.5645-0.18154-3.0308-2.142-3.3499-11.393-10.868-14.734-11.853-0.25-0.0736-0.804-0.116-2.062-0.116z"/>
  <path id="path2882-04-0" style="opacity:.6;fill:#fff" d="m47.655 33.304-5.29-7.728 1.763-2.576 6.872 10.304-7.054 10.696-1.946-2.352 5.655-8.344z"/>
  <path id="path2882-3" style="opacity:.6;fill:#fff" d="m16.345 33.304 5.29-7.728-1.763-2.576-6.872 10.304 7.054 10.696 1.946-2.352-5.655-8.344z"/>
  <path id="path2882" style="opacity:.4;fill:#666" d="m16.345 32.304 5.29-7.728-1.763-2.576-6.872 10.304 7.054 10.696 1.946-2.352-5.655-8.344z"/>
  <rect id="rect2888-3" style="opacity:.6;color:#000000;fill:#fff" transform="matrix(1 0 -.35184 .93606 0 0)" height="19.23" width="2.2342" y="26.708" x="44.163"/>
  <rect id="rect2888" style="opacity:.4;color:#000000;fill-rule:evenodd" transform="matrix(1 0 -.35184 .93606 0 0)" height="19.23" width="2.2342" y="25.639" x="43.787"/>
  <path id="path2882-04" style="opacity:.4;fill:#666" d="m47.655 32.304-5.29-7.728 1.763-2.576 6.872 10.304-7.054 10.696-1.946-2.352 5.655-8.344z"/>
 </g>
</svg>
